X: 1121
T: Amy's 30th
R: reel
M: 4/4
K: Dmajor
[M:6/8] Aff fde|fdf afd|efg fec|dcA BAF|
Aff fde|fdf afd|eAA GAA|cde d2 c:|
BdB ~F3|BdB ~G3|BdB A2 f|gfe dcA|
BdB ~F3|BdB ~G3|Bdf gfe|edc d3:|

